X: 2587
T: Ballyoran, The
R: hornpipe
M: 4/4
K: Gmajor
|:Bc|dBcA BGAF|DGGF GABc|dg ~g2 bgdB|cAAG A2 Bc|
dBcA (3Bcd AF|DGGF GABc|dgfg (3efg af|g2gfg2:|
|:Bc|dg~g2 bg~g2|dgbg edBG|FGAB cBcf|afge dcBc|
dg~g2 bg~g2|dgbg edBG|FGAB cDFA|BGGF G2:|
|:dc|BDGB dgfg|ec~c2 Gceg|fd~d2 fgaf|gfga bgdc|
BDGB dgfg|ec~c2 Gceg|fd~d2 fgaf|gb (3agf g2:|

